src/main/resources/icons/RubyIcons/icons/jruby/jruby_sdk_closed.svg

<svg xmlns="http://www.w3.org/2000/svg" width="16" height="16" viewBox="0 0 16 16">
  <g fill="none" fill-rule="evenodd">
    <path fill="#9AA7B0" fill-opacity=".8" d="M15,9 L13.5158687,6.63606555 L4.76175172,10.9919233 C4.66724492,11.0398978 4.60556048,11.1422959 4.60244025,11.2562764 C4.59998008,11.3695988 4.65494403,11.4762745 4.74675064,11.5303034 L6.58444295,12.6185142 C6.63705378,12.7494802 6.68820185,12.8766421 6.73788717,13 L1,13 L1,2.05128 C1,2.02295884 1.02295884,2 1.05128,2 L4.97888,2 C5.61570121,2.03457993 6.22161957,2.28559443 6.69633,2.71149 L7.98457,4 L15,4 L15,9 Z"/>
    <path fill="#4A0000" d="M15.844786,12.5664591 L15.1308171,12.3143191 L15.0442802,11.791751 C15.0335798,11.7268482 14.9880545,11.6734241 14.9261868,11.6521401 C14.8643191,11.631323 14.7959144,11.6454086 14.7475097,11.6898054 L13.8636576,12.5061868 L13.3763035,11.4617899 C13.9837743,10.5079377 14.2784047,9.55836576 14.3,9.48708171 C14.32,9.41949416 14.299144,9.34680934 14.2461089,9.3007393 C14.1930739,9.25470817 14.1179767,9.24463035 14.0542023,9.27396887 L12.659572,9.92451362 L12.407393,9.38346304 L12.8922957,8.26571984 C12.9218677,8.1981323 12.9061868,8.11898833 12.8529961,8.06762646 C12.7996887,8.01560311 12.7205447,8.00233463 12.653463,8.03350195 L6.10571984,11.0871595 C6.0444358,11.1155253 6.0044358,11.17607 6.00241245,11.243463 C6.00081712,11.3104669 6.03645914,11.3735409 6.09599222,11.4054864 L7.28766537,12.0489105 L8.20902724,14.0249805 C8.22918288,14.0674319 8.26509728,14.1006226 8.30929961,14.1168093 L11.0117121,15.1029572 C11.0314008,15.1101946 11.0521401,15.1138911 11.0728794,15.1138911 C11.0983658,15.1138911 11.1241634,15.1081712 11.1479377,15.0972763 L15.8611673,12.8957198 C15.9263813,12.8650195 15.9668482,12.7978988 15.9631907,12.7256031 C15.9598833,12.6534241 15.9129183,12.5903891 15.844786,12.5664591"/>
    <path fill="#CA1F27" d="M14.7963424,12.4763424 L14.7467704,12.1754864 L14.0216342,12.8455253 L14.220428,13.2715564 L15.3161479,12.7575486 L14.9128405,12.6151751 C14.8519844,12.5936576 14.8071984,12.5401556 14.7963424,12.4763424"/>
    <polyline fill="#FFD440" points="7.561 11.791 6.573 11.258 7.181 10.977 7.561 11.791"/>
    <path fill="#CA1F27" d="M12.8733074,11.5622179 C12.8759144,11.5584436 12.8785214,11.5551751 12.881284,11.5514786 C13.3428405,10.901751 13.6538132,10.2005837 13.8184436,9.77712062 L10.3024903,11.4166537 C10.2488716,11.4413619 10.1870039,11.4380934 10.1362646,11.4083268 C10.0856809,11.3784436 10.0532296,11.3250584 10.0491829,11.2665759 C10.0488716,11.258677 9.99354086,10.4943969 9.56470817,10.2258755 C9.36431907,10.1002335 9.09793774,10.1033463 8.77478599,10.2344358 L7.18070039,10.977393 L8.50089494,13.8076654 L11.0641634,14.7433463 L13.6317899,13.5464591 C13.4638132,13.3017899 13.0908171,12.8097665 12.5924514,12.4567704 C12.2014786,12.8488327 11.7400778,13.1735409 11.2027237,13.3420623 C11.1850195,13.3475875 11.1671984,13.3501946 11.1495331,13.3501946 C11.0738911,13.3501946 11.0035798,13.301284 10.9798054,13.2251362 C10.9502724,13.1314397 11.0024514,13.031284 11.0963424,13.0022957 C11.0963424,13.0022957 12.0581323,12.7573152 12.8733074,11.5622179"/>
    <path fill="#4A0000" d="M8.48494163,10.9156031 C8.26354086,10.8350195 8.01817121,10.949144 7.93789883,11.1706226 C7.85719844,11.3921401 7.97151751,11.6370428 8.19280156,11.7173541 C8.41439689,11.7982879 8.65941634,11.6841634 8.74,11.4622957 C8.82027237,11.2410506 8.70638132,10.9961868 8.48494163,10.9156031"/>
  </g>
</svg>

<svg xmlns="http://www.w3.org/2000/svg" width="16" height="16" viewBox="0 0 16 16"><rect id="frame" width="16" height="16" fill="none"/><g fill="none" fill-rule="evenodd"><path fill="#9AA7B0" fill-opacity=".8" d="M15 9l-1.484-2.364-8.754 4.356a.304.304 0 0 0-.16.264.309.309 0 0 0 .145.274l1.837 1.089.154.381H1V2.051C1 2.023 1.023 2 1.051 2H4.98a2.8 2.8 0 0 1 1.717.711L7.985 4H15v5z"/><path fill="#4A0000" d="M15.845 12.566l-.714-.252-.087-.522a.178.178 0 0 0-.296-.102l-.884.816-.488-1.044a8.832 8.832 0 0 0 .924-1.975.179.179 0 0 0-.246-.213l-1.394.65-.253-.54.485-1.118a.178.178 0 1 0-.239-.232l-6.547 3.053a.178.178 0 0 0-.01.318l1.192.644.921 1.976a.18.18 0 0 0 .1.092l2.703.986a.177.177 0 0 0 .136-.006l4.713-2.201a.178.178 0 0 0-.016-.33"/><path fill="#CA1F27" d="M14.796 12.476l-.05-.3-.724.67.198.426 1.096-.514-.403-.143a.18.18 0 0 1-.117-.139"/><path fill="#FFD440" d="M7.561 11.791l-.988-.533.608-.281.38.814"/><path fill="#CA1F27" d="M12.873 11.562l.008-.01c.462-.65.773-1.351.937-1.775l-3.516 1.64a.18.18 0 0 1-.253-.15c0-.008-.055-.773-.484-1.041-.2-.126-.467-.123-.79.008l-1.594.743 1.32 2.83 2.563.936 2.568-1.197c-.168-.244-.541-.736-1.04-1.09-.39.393-.852.718-1.39.886a.178.178 0 1 1-.106-.34s.962-.245 1.777-1.44"/><path fill="#4A0000" d="M8.485 10.916a.427.427 0 1 0-.292.802.427.427 0 0 0 .292-.802"/></g></svg>
